!!!OTL: ONDS LIEBE DAS HALTE MER
!!!ARE: Europa, Mitteleuropa, Schweiz, Appenzell
!!!SCT: E0625
!!!YEM: Copyright 1995, estate of Helmut Schaffrath.
**kern
*ICvox
*Ivox
*M2/4
*k[f#]
*G:
{8B
=1
8c
16e
16c
8B
16d
16B
=2
8A
8A
4d}
=3
{8b
16d
16b
16a
16c
16A
16f#
=4
8g
8B
4d}
=5
{8c
8e
8B
8d
=6
8A
16A
16A
4d}
=7
{8b
16d
16b
16a
16c
16A
16f#
=8
4g
8r}
{16B
16c
=9
8d
16g
16B
8d
16B
16d
=10
8c
16e
16g#
4a}
=11
{8c
16f#
16a
8d
16f#
16a
=12
8b
16d
16f#
4g}
=13
{8d
16g
16B
8d
16B
16d
=14
8c
16e
16g#
4a}
=15
{8b
16e
16a
8d
16f#
16a
=16
4g
8b}
==
!!!AGN: Liebes - Lied
!!!ONB: ESAC (Essen Associative Code) Database: ERK2
!!!AMT: simple duple
!!!AIN: vox
!!!EED: Helmut Schaffrath
!!!EEV: 1.0
*-
